X: 4
T: Dowd's No. 9
R: reel
M: 4/4
L: 1/8
K: Dmaj
|:DF F2 GFEF|D2 (3FGA dABG|F2 AF GFGB|AGFD EFGE|
DF F2 GFEF|D2 (3FGA dABG|F2 AF GFGB|AGFD ED D2 :|
|:fd d2 g2 ag|fd d2 edcA|fd d2 gfec|dcde fd d2|
fgaf gfeg|fedf ecAG|F2 AF GFGB|AGFD ED D2 :|


Tune 761	Setting 13872

